img/linked.svg

<svg width="24" height="24" viewBox="0 0 24 24" fill="none" xmlns="http://www.w3.org/2000/svg">
<path d="M21.75 0.75H2.25C1.85218 0.75 1.47065 0.908033 1.18934 1.18934C0.908033 1.47065 0.75 1.85218 0.75 2.25V21.75C0.75 22.1478 0.908033 22.5293 1.18934 22.8106C1.47065 23.092 1.85218 23.25 2.25 23.25H21.75C22.1478 23.25 22.5293 23.092 22.8106 22.8106C23.092 22.5293 23.25 22.1478 23.25 21.75V2.25C23.25 1.85218 23.092 1.47065 22.8106 1.18934C22.5293 0.908033 22.1478 0.75 21.75 0.75ZM7.41525 19.9455H4.0305V9.1875H7.41525V19.9455ZM5.7225 7.71075C5.33338 7.70955 4.95333 7.59307 4.63036 7.37604C4.30739 7.159 4.05598 6.85111 3.9079 6.49126C3.7598 6.13142 3.72167 5.73575 3.79832 5.35425C3.87496 4.97275 4.06293 4.62251 4.3385 4.34777C4.61407 4.07304 4.96488 3.88613 5.34661 3.81065C5.72835 3.73517 6.12389 3.77451 6.48328 3.92369C6.84268 4.07287 7.1498 4.32522 7.36587 4.64885C7.5819 4.97248 7.69725 5.35288 7.69725 5.742C7.69732 6.00107 7.64633 6.25762 7.54703 6.49691C7.44774 6.73621 7.30219 6.95355 7.11872 7.13646C6.93524 7.31938 6.71747 7.46426 6.47787 7.56285C6.23827 7.6614 5.98157 7.71165 5.7225 7.71075ZM19.9657 19.9455H16.65V14.742C16.65 13.4768 16.65 11.9295 14.8875 11.9295C13.125 11.9295 12.9127 13.266 12.9127 14.6715V20.016H9.6V9.1875H12.702V10.6642H12.7725C13.0925 10.1111 13.5567 9.65535 14.1156 9.34568C14.6746 9.03608 15.3071 8.88412 15.9457 8.90625C19.3305 8.90625 19.965 11.1562 19.965 14.0392L19.9657 19.9455Z" fill="white"/>
</svg>

<svg width="24" height="24" fill="none" xmlns="http://www.w3.org/2000/svg"><path d="M21.75.75H2.25a1.5 1.5 0 0 0-1.5 1.5v19.5a1.5 1.5 0 0 0 1.5 1.5h19.5a1.5 1.5 0 0 0 1.5-1.5V2.25a1.5 1.5 0 0 0-1.5-1.5ZM7.415 19.945H4.03V9.188h3.385v10.758ZM5.723 7.711a1.969 1.969 0 1 1 .012-3.938 1.969 1.969 0 0 1-.013 3.938Zm14.243 12.234H16.65v-5.203c0-1.265 0-2.813-1.762-2.813-1.763 0-1.975 1.337-1.975 2.742v5.345H9.6V9.188h3.102v1.476h.07a3.526 3.526 0 0 1 3.174-1.758c3.385 0 4.019 2.25 4.019 5.133v5.906Z" fill="#fff"/></svg>
